icons/svg/end-to-end-encryption_16.svg

<svg width="16" height="16" viewBox="0 0 16 16" fill="none" xmlns="http://www.w3.org/2000/svg">
<path d="M7 2V13.894V14C5.03713 12.9576 2.09321 9.96456 2 5.7334L7 2Z" fill="#5EBFF7"/>
<path fill-rule="evenodd" clip-rule="evenodd" d="M11.1552 5.10263L7 2V11C7 10.0681 7.63739 9.28503 8.5 9.06301V8.5C8.5 6.85827 9.63034 5.48055 11.1552 5.10263Z" fill="#279BE8"/>
<path fill-rule="evenodd" clip-rule="evenodd" d="M0.646287 4.28314C0.227849 4.57259 9.29128e-08 5.05385 9.29128e-08 5.56251C-0.000682237 10.9663 3.75694 14.56 6.24844 15.7984C6.26889 15.8103 6.29025 15.8209 6.31241 15.8298L6.34292 15.8445L6.34437 15.8415L6.34234 15.8408C6.39191 15.8573 6.44491 15.8662 6.5 15.8662C6.77614 15.8662 7 15.6424 7 15.3662C7 15.1908 6.90968 15.0365 6.77301 14.9473L6.77516 14.9428C4.52575 13.8646 0.999371 10.5447 1 5.56263C1 5.34847 1.09337 5.18982 1.21517 5.10556L1.22636 5.09782L6.70495 1.08354C6.87331 0.971932 7.09252 0.972155 7.26068 1.0842L12.2546 4.72077C12.4782 4.88354 12.7916 4.83275 12.9522 4.60771C13.1107 4.38576 13.0609 4.07761 12.8406 3.91689L7.83699 0.266829C7.32287 -0.0889021 6.64197 -0.0889467 6.1278 0.266717L0.646287 4.28314Z" fill="#279BE8"/>
<path fill-rule="evenodd" clip-rule="evenodd" d="M9.5 10V8.5C9.5 7.11929 10.6193 6 12 6C13.3807 6 14.5 7.11929 14.5 8.5V10H14.7C15.418 10 16 10.582 16 11.3V14.7C16 15.418 15.418 16 14.7 16H9.3C8.58203 16 8 15.418 8 14.7V11.3C8 10.582 8.58203 10 9.3 10H9.5ZM10.5 8.5C10.5 7.67157 11.1716 7 12 7C12.8284 7 13.5 7.67157 13.5 8.5V10H10.5V8.5Z" fill="#279BE8"/>
</svg>

<?xml version="1.0" encoding="utf-8"?>
<!-- Generator: Adobe Illustrator 25.0.0, SVG Export Plug-In . SVG Version: 6.00 Build 0)  -->
<svg version="1.1" id="Layer_1" xmlns="http://www.w3.org/2000/svg" xmlns:xlink="http://www.w3.org/1999/xlink" x="0px" y="0px"
	 viewBox="0 0 16 16" style="enable-background:new 0 0 16 16;" xml:space="preserve">
<style type="text/css">
	.st0{fill-rule:evenodd;clip-rule:evenodd;}
</style>
<g>
	<path d="M7,2v11.9V14c-2-1-4.9-4-5-8.3L7,2z"/>
	<path class="st0" d="M11.2,5.1L7,2v9c0-0.9,0.6-1.7,1.5-1.9V8.5C8.5,6.9,9.6,5.5,11.2,5.1z"/>
	<path class="st0" d="M0.6,4.3C0.2,4.6,0,5.1,0,5.6c0,5.4,3.8,9,6.2,10.2c0,0,0,0,0.1,0l0,0l0,0l0,0c0,0,0.1,0,0.2,0
		c0.3,0,0.5-0.2,0.5-0.5c0-0.2-0.1-0.3-0.2-0.4l0,0C4.5,13.9,1,10.5,1,5.6c0-0.2,0.1-0.4,0.2-0.5l0,0l5.5-4C6.9,1,7.1,1,7.3,1.1
		l5,3.6c0.2,0.2,0.5,0.1,0.7-0.1c0.2-0.2,0.1-0.5-0.1-0.7l-5-3.7c-0.5-0.4-1.2-0.4-1.7,0L0.6,4.3z"/>
</g>
<path class="st0" d="M9.5,10V8.5C9.5,7.1,10.6,6,12,6s2.5,1.1,2.5,2.5V10h0.2c0.7,0,1.3,0.6,1.3,1.3v3.4c0,0.7-0.6,1.3-1.3,1.3H9.3
	C8.6,16,8,15.4,8,14.7v-3.4C8,10.6,8.6,10,9.3,10H9.5z M10.5,8.5C10.5,7.7,11.2,7,12,7s1.5,0.7,1.5,1.5V10h-3V8.5z"/>
</svg>
